icons/road-outline.svg

<svg width="24" height="24" viewBox="0 0 24 24" fill="none" xmlns="http://www.w3.org/2000/svg">
<path fill-rule="evenodd" clip-rule="evenodd" d="M11 19V16H13V19V21H10.999L10.9998 19H11ZM13 10V14H11V10H13ZM15 5.3092L14.3774 3H14.7331C15.7617 3 16.6583 3.70267 16.9078 4.70429L20.9665 19.6021C20.9888 19.6914 21 19.783 21 19.875C21 20.4963 20.4982 21 19.8792 21H19.269L18.7296 19L15 5.3092ZM13 3V5V8H11V5.3092V3H13ZM4.73 21H4.12107C4.02943 21 3.93813 20.9887 3.84923 20.9664C3.24871 20.8157 2.8836 20.2049 3.03373 19.6021L7.09245 4.70429C7.34192 3.70267 8.23852 3 9.26712 3H9.62259L9 5.3092L5.27021 19L4.73 21Z" fill="#3A3A47"/>
</svg>

<svg xmlns="http://www.w3.org/2000/svg" width="24" height="24" viewBox="0 0 24 24">
    <path fill="#3A3A47" fill-rule="evenodd" d="M11 19v-3h2v5h-2.001v-2H11zm2-9v4h-2v-4h2zm2-4.69L14.377 3h.356c1.029 0 1.925.703 2.175 1.704l4.059 14.898A1.123 1.123 0 0 1 19.88 21h-.611l-.54-2L15 5.31zM13 3v5h-2V3h2zM4.73 21h-.609a1.125 1.125 0 0 1-1.087-1.398L7.092 4.704A2.243 2.243 0 0 1 9.267 3h.356L9 5.31 5.27 19l-.54 2z"/>
</svg>
